**kern	**kern	**dynam
*part1	*part1	*part1
*staff2	*staff1	*
*I"Piano	*	*
*clefF4	*clefG2	*
*k[f#c#]	*k[f#c#]	*
=1	=1	=1
4D	16r	.
.	16ALL	.
.	16d	.
.	16f#	.
8E	16A	.
.	16c#JJ	.
4.F#	16r	.
.	16ALL	.
.	16d	.
.	16f#	.
.	16d	.
.	16AJJ	.
=	=	=
8G	8B	[ f
8r	8r	.
8G	8B 8e	.
4A	4c# 4e	.
8AA	8c# 8e	.
=	=	=
4AA#X	4c# 4e	<
8AA#	8c# 8e	.
4BB	4B 4d	.
8BB	8B 8d	.
=	=	=
4GG	4B 4e	[ >
8GG	8G 8B	.
4AAn	4F# 4A	.
8AA	8G 8A	.
=	=	=
4D'~	4F#'~ 4A	] mf
8D 8F# 8A	8f#	.
4D 4G 4c#	8.aL	f <
.	16bK	.
8D 8G 8c#	8aJ	.
=	=	=
4D'~ 4F# 4d	4dd'~	.
8D 8F# 8d	8ff#	.
4D 4G 4c#	8.aaTmL	.
.	16bbK	.
8D 8G 8c#	8aaJ	.
=	=	=
4D'~ 4F# 4d	4ddd'~	[ >
8D 8A	8f#	.
4D'~ 4F#	4d'~	.
8D 8A	8f#	.
=	=	=
2.D; 2.F#	2.d;	.
==	==	==
*-	*-	*-
!!!system-decoration: {(s1,s2)}
